polaris-icons/icons/newicons/MobileHamburgerMajor.svg

<svg width="20" height="20" viewBox="0 0 20 20" fill="none" xmlns="http://www.w3.org/2000/svg">
<path fill-rule="evenodd" clip-rule="evenodd" d="M2 4.75C2 4.33579 2.33579 4 2.75 4H17.25C17.6642 4 18 4.33579 18 4.75C18 5.16421 17.6642 5.5 17.25 5.5H2.75C2.33579 5.5 2 5.16421 2 4.75Z" fill="black"/>
<path fill-rule="evenodd" clip-rule="evenodd" d="M2 10C2 9.58579 2.33579 9.25 2.75 9.25H17.25C17.6642 9.25 18 9.58579 18 10C18 10.4142 17.6642 10.75 17.25 10.75H2.75C2.33579 10.75 2 10.4142 2 10Z" fill="black"/>
<path fill-rule="evenodd" clip-rule="evenodd" d="M2 15.25C2 14.8358 2.33579 14.5 2.75 14.5H17.25C17.6642 14.5 18 14.8358 18 15.25C18 15.6642 17.6642 16 17.25 16H2.75C2.33579 16 2 15.6642 2 15.25Z" fill="black"/>
</svg>

<svg viewBox="0 0 20 20" fill="none" xmlns="http://www.w3.org/2000/svg"><path fill-rule="evenodd" clip-rule="evenodd" d="M2 4.75a.75.75 0 0 1 .75-.75h14.5a.75.75 0 0 1 0 1.5h-14.5a.75.75 0 0 1-.75-.75Z" fill="#5C5F62"/><path fill-rule="evenodd" clip-rule="evenodd" d="M2 10a.75.75 0 0 1 .75-.75h14.5a.75.75 0 0 1 0 1.5h-14.5a.75.75 0 0 1-.75-.75Z" fill="#5C5F62"/><path fill-rule="evenodd" clip-rule="evenodd" d="M2 15.25a.75.75 0 0 1 .75-.75h14.5a.75.75 0 0 1 0 1.5h-14.5a.75.75 0 0 1-.75-.75Z" fill="#5C5F62"/></svg>
